X: 39926
T: Thomas's
R: hornpipe
M: 4/4
K: Dmajor
A|:dcde dAGF|E2 ge dcBA|G2 eG F2 dF|EFGA GFED|
dcde dAGF|E2 ge dcBA|G2 eG F2 dF|1 gedc d2 d2:|2 gedc d2||
|:cd|ecBA ecBA|Bgfa dcBA|G2 eG F2 dF|EFGA GFED|
dcde dAGF|E2 ge dcBA|G2 eG F2 dF|1 gedc d2:|2 gedc d2 d2||

